!! 00000] TT[00
!! NN
!!!OTL: Yipian shulin gen lian gen
!!!ARE: Asia, China,ÿAnhui, Fanchang
!! Ethnic Group: Han
!! III, 527
!!!SCT: C0337
!!!YEM: Copyright 1995, estate of Helmut Schaffrath.
**kern
*ICvox
*Ivox
*M2/4
*k[b-]
*F:
{8f
8g
4d
=1
8f
8ff
4dd
=2
8cc
8cc
8a
8g
=3
8cc
8f
4d}
=4
{8f
8d
8d
8cc
=5
8a
16g
16f
8d
8g
=6
8f
4.d}
=7
{4d
8d
8f
=8
4.dd
16cc
16a
=9
8g
16f
16d
8d
8g
=10
8f
4.d}
=11
{8d
8f
4d
=12
8f
8ff
4dd
=13
8cc
8cc
8a
8g
=14
8a
8f
4d}
=15
{8d
8d
8d
8f
=16
4.a
16g
16f
=17
8f
8d
8f
8g
=18
2d}
==
!!!AGN: Shange, Manganniu. Xin minge
!! viele Oktav- und Septspruenge sind typisch. 1 Periode, Strophe ?)
!!    hat 5 Saetze. - Das Dabie-Gebirge trennt Anhui und Hubei.
!!    Vereinzelt Verzierungen.
!!!ONB: ESAC (Essen Associative Code) Database: CHINA
!!!AMT: simple duple
!!!AIN: vox
!!!EED: Helmut Schaffrath
!!!EEV: 1.0
*-
